symbols/web/auto_awesome/materialsymbolsoutlined/auto_awesome_wght500gradN25_20px.svg

<svg xmlns="http://www.w3.org/2000/svg" height="20" width="20"><path d="m15.625 7.792-1.083-2.375-2.313-1.063 2.313-1.042L15.625.958l1.104 2.354 2.292 1.042-2.292 1.063Zm0 11.25-1.083-2.334-2.313-1.062 2.313-1.042 1.083-2.375 1.104 2.375 2.292 1.042-2.292 1.062Zm-7.958-2.313-2.063-4.604L1 10l4.604-2.104 2.063-4.604 2.104 4.604L14.354 10l-4.583 2.125Zm0-4.208.791-1.709L10.146 10l-1.688-.792L7.667 7.5l-.771 1.708L5.188 10l1.708.812Zm0-2.521Z"/></svg>

<svg xmlns="http://www.w3.org/2000/svg" height="20" width="20"><path d="M15.625 7.792 14.542 5.417 12.229 4.354 14.542 3.312 15.625 0.958 16.729 3.312 19.021 4.354 16.729 5.417ZM15.625 19.042 14.542 16.708 12.229 15.646 14.542 14.604 15.625 12.229 16.729 14.604 19.021 15.646 16.729 16.708ZM7.667 16.729 5.604 12.125 1 10 5.604 7.896 7.667 3.292 9.771 7.896 14.354 10 9.771 12.125ZM7.667 12.521 8.458 10.812 10.146 10 8.458 9.208 7.667 7.5 6.896 9.208 5.188 10 6.896 10.812ZM7.667 10Z"/></svg>
